X:1
T:Beatus vir - Nanino
T:#
%%score { 1 | 2 } 3 4
L:1/8
Q:1/4=130
M:4/4
K:Bb
V:1 treble nm="Soprano I" snm="S"
V:2 treble 
V:3 treble nm="Alto" snm="A"
V:4 treble nm="Tenor" snm="T"
V:1
"^Beatus vir, qui timet""^Bernardino Nanino\n(1560-1623)""^Psalm 112 (111 Vulgate)" x24 | %1
w: |
[Q:1/4=150][Q:1/4=150][Q:1/4=150] z4 f6 f2 f2 f2 | e4 d4 (f6 ed | c2 A2 d8) c4 | (d6 cB A2 F2 B4- | %5
w: In man- da- tis|e- ius vo\- * *|* * * let|ni\- * * * * *|
 B4) A4 B4 f4- |[M:4/2] f2 f2 f2 f2 e8 | d8 (f6 ed | c2 A2 d8) c4 | d16- | d8 d16 || %11
w: * * mis, in|* man- da- tis e-|ius vo\- * *|* * * let|ni\-|* mis.|
[Q:1/4=130][Q:1/4=130][Q:1/4=130] x24 | x18 |[M:4/2][Q:1/4=150][Q:1/4=150][Q:1/4=150] B12 A4 | %14
w: ||Glo- ri-|
 G8 z4 F2 G2 | A2 A2 B2 c2 (dcde f4) | d4 (d8 c4- | c2 BA B2 c2) (d3 e f4) | F2 G2 A2 A2 B6 c2 | %19
w: a, et di-|vi- ti- ae in do\- * * * *|mo e\- *|* * * * * ius, * *|et di- vi- ti- ae in|
 d2 e2 (f8 d4- | d2 cB c2 B2 d8) | d8 d4 e2 f2- | ff f2 d4 d8 | z4 (g6 f2 e4- | e4 d2 c2 d4) d4 | %25
w: do- mo e\- *||ius: et ju- sti\-|* ti- a e- ius|ma\- * *|* * * * net|
 z2 f2 f2 =e2 f4 (FGAB) | (cdef g6 fe d3) d | c4 (e6 d2 c4- | c2 B2 _A2 GF B4) G2 B2 | %29
w: in sae- cu- lum sae\- * * *|* * * * * * * * cu-|li, ma\- * *|* * * * * * net in|
 B6 A2 (B3 c de f2-) | (fe d2 c2 B2) c3 B A4 | z4 F4 G4 A4 | B16 | A6 A2 =B16 || %34
w: sae- cu- lum * * * *|* * * * * sae- cu- li,|in sae- cu-|lum|sae- cu- li.|
[Q:1/4=130][Q:1/4=130][Q:1/4=130] x24 | x18 | %36
w: ||
[M:4/2][Q:1/4=150][Q:1/4=150][Q:1/4=150] G4 G2 G2 (G3 A B3 c | d4) G4 z2 e2 e2 e2 | %38
w: Ju- cun- dus ho\- * * *|* mo, qui mi- se-|
 (e2 dc dcBA B4) B2 B2 | c3 c G4 z4 z2 d2 | d2 d2 (dcde f8) | f4 (d6 cB c4) | d6 d2 d8 | %43
w: re\- * * * * * * * tur et|com- mo- dat, qui|mi- se- re\- * * * *|tur et * * *|com- mo- dat,|
 z4 B4 d4 e2 d2 | c2 B2 A4 B8 | B4 c4 d4 B4 | c4 c8 A4 | B2 c2 F4 F4 f4 | (f2 ed c2 d2 e8- | %49
w: di- spo- net ser-|mo- nes su- os|in ju- di- ci-|o: qui- a|in ae- ter- num non|com\- * * * * *|
 e4) d4 c6 c2 | c8 A4 B4 | c2 d2 e4 d8 | z4 f4 (f2 ed c2 d2) | e8 d4 c3 c | d16 | %55
w: * mo- ve- bi-|tur, qui- a|in ae- ter- num|non com\- * * * *|* mo- ve- bi-|tur,|
 z4 d4 (d2 cB A2 B2 | c12) B4 | A6 A2 =B16 ||[Q:1/4=130][Q:1/4=130][Q:1/4=130] x24 | x18 | %60
w: non com\- * * * *|* mo-|ve- bi- tur.|||
[M:4/2][Q:1/4=150][Q:1/4=150][Q:1/4=150] z8 z2 G2 (B3 c | d4) d2 d2 e8 | d4 z2 d2 (f3 e d3 c | %63
w: Pa- ra\- *|* tum cor e-|ius spe- ra\- * * *|
 B3 A G4) A4 B4 | (c4 d3 e f2 d2 g4- | g2 f2 f8) =e4 | f8 z4 A4 | A2 A4 B2 c4 d4 | e4 B4 z4 e4 | %69
w: * * * re in|Do\- * * * * *|* * * mi-|no, con-|fir- ma- tum est cor|e- ius, con-|
 e2 e4 d2 c2 B2 c4 | d8 B2 c2 c2 d2- | dd d2 e2 f2 f2 g4 g2 | f8 z4 f4 | e4 d8 c4 | z4 B8 G4 | %75
w: fir- ma- tum est cor e-|ius: non com- mo- ve\-|* bi- tur do- nec de- spi- ci-|at i-|ni- mi- cos,|i- ni-|
 F4 G4 A8 | =B16 ||[Q:1/4=130][Q:1/4=130][Q:1/4=130] x24 | x18 | %79
w: mi- cos su-|os.|||
[M:4/2][Q:1/4=150][Q:1/4=150][Q:1/4=150] =B8 c8 | A4 d4 c8 | c4 z4 z8 | F2 G2 A2 B4 (A2 G2) e2 | %83
w: Pec- ca-|tor vi- de-|bit,|et i- ra- sce- tur, * et|
 e2 d2 f4 f4 d4- | d2 d2 c4 c8- | c4 =B4 z4 c4- | c4 B8 A4- | A2 G2 ^F4 G8 | z4 d8 c4 | %89
w: i- ra- sce- tur, den\-|* ti- bus su\-|* is fre\-|* met et|* ta- be- scet,|fre- met|
 (B6 c2 d8) | c8 f8- | f8 f8 | f16 | g8 f6 f2 | f12 e2 d2 | e4 d8 B4 | A8 G8 | z4 c6 c2 B4- | %98
w: et * *|ta- be\-|* scet:|de-|si- de- ri-|um pec- ca-|to- rum per-|i- bit,|de- si- de\-|
 B4 A4 A8 | G4 G4 d8- | d8 G4 G4 | (B4 A2 G2 d8) | d4 z4 z8 || %103
w: * ri- um|pec- ca- to\-|* rum per-|i\- * * *|bit.|
[Q:1/4=130][Q:1/4=130][Q:1/4=130] x24 |[M:4/2][Q:1/4=150][Q:1/4=150][Q:1/4=150] z16 | z8 d8 | %106
w: ||Si-|
 B8 A8 | B8 d6 d2 | e4 c4 d2 B2 f2 f2 | (fedc d4) e2 B2 e2 e2 | (edcB c4 d3 e f4- | f2 =ed e4) f8 | %112
w: cut e-|rat in prin-|ci- pi- o, et nunc, et|sem\- * * * * per, et nunc, et|sem\- * * * * * * *|* * * * per,|
 z16 | F4 G4 A3 G F4 | z4 B4 A4 B4- | B4 G4 (B2 AG A2 B2) | c4 F4 z2 f4 =e2 | %117
w: |et in sae- cu- la|sae- cu- lo\-|* rum, A\- * * * *|* men, et in|
[Q:1/4=149] f3[Q:1/4=147] _e[Q:1/4=146] d4[Q:1/4=144] z4[Q:1/4=141] G4 | %118
w: sae- cu- la sae-|
[Q:1/4=139] F4[Q:1/4=136] B8[Q:1/4=133] c4 |[Q:1/4=130] A8[Q:1/4=128] =B16 |] %120
w: cu- lo- rum,|A- men.|
V:2
[I:staff -1] F2 G2 B2 B2 B2 B2 c2 B2 A2 G2 B4 |[I:staff +1] z16 | z8 z4 f4- | f2 f2 f2 f2 e8 | %4
w: Be- a\- * tus vir, qui ti- met Do- mi- num.||In|* man- da- tis e-|
w: ||||
 d2 (f4 ed c2 A2) d4 | (c8 d6 cB) |[M:4/2] (A2 F2 B8 A4) | B8 z4 f4- | f2 f2 f2 f2 e8 | d4 B8 B4 | %10
w: ius vo\- * * * * let|ni\- * * *||mis, in|* man- da- tis e-|ius vo- let|
w: ||||||
 A8 =B16 ||[I:staff -1] F2 G2 B8 c2 B2 A2 G2 B4 | B8 G2 B2 A2 G4 |[M:4/2][I:staff +1] z16 | z16 | %15
w: ni- mis.|Po- tens in~terra~erit se- men e\- * ius:|generatio~rectorum~be- ne- di- ce- tur.|||
w: |||||
 z16 | f12 e4 | d8 z4 B2 c2 | d2 e2 f4 e4 d4- | d4 c8 (B4- | B4 A2 G2 A8) | =B8 B4 c2 d2- | %22
w: |Glo- ri-|a, et di-|vi- ti- ae in do\-|* mo e\-||ius: et ju- sti\-|
w: |||||||
 dd c2 B4 A4 (d4- | d2 c2 B6 A2 GA B2- | B2 AG A4) B8 | d4 c2 B2 A2 (FG ABcd) | %26
w: * ti- a e- ius ma\-||* * * * net|in sae- cu- lum sae\- * * * * *|
w: ||||
 (efgf e2 dc =B2 c4) B2 | c8 z4 (e4- | e2 d2 d2 cd e4) B4 | z2 G2 B2 c2 (dcde f2) (Bc) | %30
w: * * * * * * * * * cu-|li, ma\-|* * * * * * net|in sae- cu- lum * * * * sae\- *|
w: ||||
 (de f4) =e2 f4 c4 | c4 d4 e8 | d16 | d8 d16 ||[I:staff -1] F2 G2 B8 c2 B2 A2 G2 B4 | %35
w: * * * cu- li, in|sae- cu- lum|sae-|cu- li.|Ex- or- tum~est~in~tenebris lu- men re\- * ctis:|
w: |||||
 B8 G2 B2 A2 G4 |[M:4/2][I:staff +1] z16 | z8 G4 G2 G2 | (G3 A B3 c d4) G4 | %39
w: misericors,~et~misera- tor, et ju- stus.||Ju- cun- dus|ho\- * * * * mo,|
w: ||||
 z2 e2 e2 e2 (e2 dc d3 e | f8) d4 c4 | (c4 B2 A2 G8 | A6) A2 =B8 | z4 d4 f4 g2 f2 | %44
w: qui mi- se- re\- * * * *|* tur et|com\- * * *|* mo- dat,|di- spo- net ser-|
w: |||||
 e2 d2 c4 d4 d4- | d2 e2 f8 =e4 | f8 c6 c2 | e2 e2 d4 c8 | z4 c4 (c2 BA G2) A2 | (B6 A2 G4) G4 | %50
w: mo- nes su- os in|* ju- di- ci-|o: qui- a|in ae- ter- num|non com\- * * * mo-|ve\- * * bi-|
w: ||||||
 A8 c4 d4 | e2 f2 g4 f8 | d8 c8- | c4 B4 (A2 B4) A2 | B8 z4 g4 | (g2 fe d2 e2 f8- | f4) e4 d8- | %57
w: tur, qui- a|in ae- ter- num|non com\-|* mo- ve\- * bi-|tur, non|com\- * * * * *|* mo- ve\-|
w: |||||||
 d4 d4 d16 ||[I:staff -1] F2 G2 B8 c2 B2 A2 G2 B4 | B8 G2 B2 A2 G4 |[M:4/2][I:staff +1] z16 | %61
w: * bi- tur.|~In me- moria~æterna e- rit ju\- * stus:|ab~auditione~mala non ti- me- bit.~||
w: ||||
 z8 G8 | B8 A4 F4 | (G3 A B3 c d4) d4 | z4 f4 d8 | c4 d4 B4 G4 | c8 c4 c2 c2- | c2 c2 d2 e2 f8 | %68
w: Pa-|ra- tum cor|e\- * * * * ius|spe- ra-|re in Do- mi-|no, con- fir- ma\-|* tum est core e-|
w: |||||||
 g2 e2 e2 e4 B2 c4- | c4 f4 f8 | f8 f2 e2 c2 f2- | ff f2 e2 e2 d2 e4 e2 | d16 | z4 f8 e4 | %74
w: ius, con- fir- ma- tum est|* cor e-|ius: non com- mo- ve\-|* bi- tur do- nec de- spi- ci-|at|i- ni-|
w: ||||||
 (d6 c2 B4) c4 | d16 | d16 ||[I:staff -1] F2 G2 B8 c2 B2 A2 G2 B4 | B8 G2 B2 A2 G4 | %79
w: mi\- * * cos|su-|os.|~Di- sper- sit,~de- dit pau- pe- ri- bus:|justitia~eius~manet~in~saeculum~ * * * *|
w: ||||saeculi,~cornu~eius~exaltabitur in glo- ri- a.|
[M:4/2][I:staff +1] d8 e8 | d4 f4 f8 | f4 z4 z4 z2 e2 | e2 d2 c4 c4 z2 G2 | A2 B2 c4 d8 | %84
w: Pec- ca-|tor vi- de-|bit, et|i- ra- sce- tur, et|i- ra- sce- tur,|
w: |||||
 f4 f2 f2 e8 | d8 z8 | z16 | c8 e4 d4- | d2 B2 A4 B4 e4- | e4 d8 f4- | f4 e4 (d6 cB | c8) d8 | %92
w: den- ti- bus su-|is||fre- met et|* ta- be- scet, fre\-|* met et|* ta- be\- * *|* scet:|
w: ||||||||
 z8 z4 f4 | f4 e8 d4 | d4 c2 B2 c8 | B4 A4 (B6 AG) | (^F2 G4 F2) G4 z4 | z16 | f16 | g8 f6 f2 | %100
w: de-|si- de- ri-|um pec- ca- to-|rum per- i\- * *|i\- * * bit,||de-|si- de- ri-|
w: ||||||||
 f4 e2 d2 e8 | d6 B2 A8 | B4 z4 z8 ||[I:staff -1] F2 G2 B8 c2 B2 A2 G2 B4 | %104
w: um pec- ca- to-|rum per- i-|bit.|Glo- ri- a~Patri,~et~Filio,~et~Spiri- tu- i San\- * cto:|
w: ||||
[M:4/2][I:staff +1] d12 B4 | A8 B8 | d6 d2 e4 d4 | (d3 c d3 e f8) | z2 B2 f2 f2 (fedc d4) | %109
w: Si- cut|e- rat|in prin- ci- pi-|o, * * * *|et nunc, et sem\- * * * *|
w: |||||
 d2 F2 B2 B2 (BAGF G2) G2 | z2 c2 f2 f2 (f3 e dc d2- | dcBA B4) c8 | F4 G4 A3 G F4 | z8 z4 f4- | %114
w: per, et nunc, et sem\- * * * * per,|et nunc, et sem\- * * * *|* * * * * per,|et in sae- cu- la|sae\-|
w: |||||
 f4 =e4 f4 F4 | G8 F4 z2 f2- | f2 =e2 (f3 _e d4) G4 | F4 B8 c4 | d4 G4 (e8 | d8) d16 |] %120
w: * cu- lo- rum,|A- men, et|* in sae\- * * cu-|la sae- cu-|lo- rum, A\-|* men.|
w: ||||||
V:3
[K:C] z24 |[K:Bb][K:treble] B6 B2 B2 B2 A4 | G4 (B6 AG F4- | F4) D4 (G4 A4) | B4 F8 D4 | %5
w: |In man- da- tis e-|ius vo\- * * *|* let ni\- *|mis, vo- let|
 (E4 F4) B,8 |[M:4/2] z16 | z4 B6 B2 B2 B2 | A8 G8 | (B6 AG F2) D2 (G4- | G4 ^F4) G16 || z24 | %12
w: ni\- * mis,||in man- da- tis|e- ius|vo\- * * * let ni\-|* * mis.||
 z18 |[M:4/2] z16 | z8 F8- | F4 E4 D8 | z4 B,2 C2 D2 D2 E2 F2 | G4 G4 F4 D4 | z4 F2 F2 G2 A2 B4- | %19
w: ||Glo\-|* ri- a,|et di- vi- ti- ae in|do- mo e- ius,|et di- vi- ti- ae|
 B4 A8 G4 | ^F4 (G6 F=E F4) | G8 z2 G2 G2 B2- | BB A2 G8 ^F4 | (B6 A2 G6 F2 | E8) F8 | %25
w: * in do-|mo e\- * * *|ius: et ju- sti\-|* ti- a e- ius|ma\- * * *|* net|
 B4 A2 G2 F8 | (C3 D E3 F G6) G2 | G8 (c6 B2 | _A8) G8 | G4 F2 E2 F8 | B4 A2 G2 (A3 G FGAF | %31
w: in sae- cu- lum|sae\- * * * * cu-|li, ma\- *|* net|in sae- cu- lum,|in sae- cu- lum * * * * *|
 G2) c4 =B2 c2 (C3 DEF | GA B4 AG ^F4 G4- | G4) ^F4 G16 || z24 | z18 |[M:4/2] z8 G4 G2 G2 | %37
w: * sae- cu- li, sae\- * * *||* cu- li.|||Ju- cun- dus|
 (G3 F E3 D C8- | C4) G,4 z4 z2 G2 | G2 G2 (GFEF GFGA B4- | B2 AG) F2 B2 B2 B2 (B2 AG | %41
w: ho\- * * * *|* mo, qui|mi- se- re\- * * * * * * * *|* * * tur, qui mi- se- re\- * *|
 A2) A2 B8 G4- | G4 ^F4 G4 z2 G2 | B8 B4 E4 | E2 E2 F4 F4 F4- | F4 F4 B6 B2 | A4 A8 F4 | %47
w: * tur et com\-|* mo- dat, di-|spo- net ser-|mo- nes su- os in|* ju- di- ci-|o: qui- a|
 G2 A2 (B8 A2 G2) | A8 G8 | G4 F4 F4 =E4 | F4 F8 B4 | _A2 F2 E4 B4 B4 | (B2 =AG F2 G2 _A8) | %53
w: in ae- ter\- * *|num non|com- mo- ve- bi-|tur, qui- a|in ae- ter- num non|com\- * * * * *|
 G8 F6 F2 | F8 B8- | B8 A8- | A4 G4 (^F4 G4- | G4) ^F4 G16 || z24 | z18 |[M:4/2] D8 E8 | %61
w: mo- ve- bi-|tur, non|* com\-|* mo- ve\- *|* bi- tur.|||Pa- ra-|
 D4 B,4 (C3 D E3 F | G8) F4 B4 | G8 ^F4 G4 | A6 F2 B4 B4 | A4 F2 F2 G4 B4 | B4 A2 G2 A4 F4 | %67
w: tum cor e\- * * *|* ius spe-|ra- re in|Do- mi- no, spe-|ra- re in Do- mi-|no, con- fir- ma- tum|
 F2 F4 G2 A4 B4 | B4 G2 B2 B2 B4 A2 | (G3 A) (BAFG) (A2 B4 A2) | B8 F2 G2 A2 B2- | %71
w: est core e- ius, cor|e- ius, con- fir- ma- tum|est * cor * * * e\- * *|ius: non com- mo- ve\-|
 BB B2 B2 c2 B2 B4 B2 | B8 B8- | B8 G8 | B4 F4 (G6 A2 | B4 A2 G2 ^F2 G4 F2) | G16 || z24 | z18 | %79
w: * bi- tur do- nec de- spi- ci-|at i\-|* ni-|mi- cos, su\- *||os.|||
[M:4/2] z4 G4 G8 | F4 B4 A8 | A4 F2 G2 A2 (B4 A2) | B4 z4 G2 A2 B2 (c2- | c2 B4) A2 B8 | B4 c4 G8 | %85
w: Pec- ca-|tor vi- de-|bit, et i- ra- sce\- *|tur, et i- ra- sce\-|* * tur, den-|ti- bus su-|
 G8 G8- | G8 F8 | z4 c8 B4 | A2 G2 ^F4 G8 | z4 B8 A4- | A4 c6 B2 (B4- | B4 A4) B8 | z4 A8 B4- | %93
w: is fre\-|* met,|fre- met|et ta- be- scet,|fre- met|* et ta- be\-|* * scet:|de- si\-|
 B4 c8 B4 | B4 _A2 G2 A8 | G4 ^F4 G8 | D8 z8 | z4 A8 B4 | c6 c2 c8- | c4 B2 A2 B4 A4- | %100
w: * de- ri-|um pec- ca- to-|rum per- i-|bit,|de- si-|de- ri- um|* pec- ca- to- rum|
 A2 A2 (B8 A2 G2 | ^F4 G8 F4) | G8 z8 || z24 |[M:4/2] z16 | z8 z2 (G,A, B,CDE | F2) D2 G8 ^F4 | %107
w: * per- i\- * *||bit.|||Si\- * * * * *|* cut e- rat|
 (G6 FE D4) F4 | G4 A4 B4 z2 F2 | B2 B2 (BAGF G3 A B4-) | (B2 AG A4) B2 F2 B2 B2 | (BAGF G4) A8 | %112
w: in * * * prin-|ci- pi- o, et|nunc, et sem\- * * * * * *|* * * * per, et nunc et|sem\- * * * * per,|
 z2 F4 =E2 F3 _E D4 | z4 G,4 F,4 B,4- | B,4 G,4 (C4 D2 F2- | F2 =ED E4) F4 F4 | G4 A3 G F4 z2 c2 | %117
w: et in sae- cu- la|sae- cu- lo\-|* rum, A\- * *|* * * * men, et|in sae- cu- la, et|
 A2 B4 F2 (G3 F E4 | B,2) B4 G4 B4 (AG) | (^F2 G4 F2) G16 |] %120
w: in sae- cu- la * *|* sae- cu- lo- rum, *|A\- * * men.|
V:4
[K:C] z24 |[K:Bb][K:treble-8] z16 | z16 | z16 | z16 | z8 z4 d4- | %6
w: |||||In|
[M:4/2][K:treble-8] d2 d2 d2 d2 c8 | B8 (d6 e2 | f4) d4 (e6 dc | B4 G4 B6 c2 | d8) G16 || z24 | %12
w: * man- da- tis e-|ius vo\- *|* let ni\- * *||* mis.||
 z18 |[M:4/2][K:treble-8] z16 | z16 | z16 | z16 | z8 B8- | B4 A4 G8 | z4 F2 G2 A2 A2 B2 c2 | %20
w: |||||Glo\-|* ri- a,|et di- vi- ti- ae in|
 d4 e4 d8 | G8 G4 c2 B2- | BB F2 G4 d8 | (g6 f2 e6 d2 | c8) B8 | z16 | z16 | (c6 B2 _A6 G2 | %28
w: do- mo e-|ius: et ju- sti\-|* ti- a e- ius|ma\- * * *|* net|||ma\- * * *|
 F8) E8 | e4 d2 c2 B8 | z8 f8 | e4 d4 c8 | (G8 d8- | d4) d4 G16 || z24 | z18 | %36
w: * net|in sae- cu- lum,|in|sae- cu- lum|sae\- *|* cu- li.|||
[M:4/2][K:treble-8] z16 | z16 | g4 g2 g2 (g3 f e3 d) | c12 G4 | z2 d2 d2 d2 (dcde f4- | f4) g4 e8 | %42
w: ||Ju- cun- dus ho\- * * *|* mo,|qui mi- se- re\- * * * *|* tur et|
 d6 d2 G8- | G8 z8 | z8 B8- | B4 A4 G6 G2 | F8 f6 f2 | e2 c2 B4 F8 | f8 e8 | B8 c6 c2 | F8 z8 | %51
w: com- mo- dat,||in|* ju- di- ci-|o: qui- a|in ae- ter- num|non com-|mo- ve- bi-|tur,|
 z8 B8- | B8 _A8 | E8 F6 F2 | B8 G8- | G8 F8- | F4 c4 d8- | d4 d4 G16 || z24 | z18 | %60
w: non|* com-|mo- ve- bi-|tur, non|* com\-|* mo- ve\-|* bi- tur.|||
[M:4/2][K:treble-8] z16 | z16 | z2 G2 (B3 c d4) d2 d2 | e8 d4 z2 g2 | (f3 e d3 c B3 A G4) | %65
w: ||Pa- ra\- * * tum cor|e- ius spe-|ra\- * * * * * *|
 A4 B4 G6 G2 | F16 | z16 | e4 e2 e4 d2 c4- | c4 B4 F8 | B8 d2 e2 f2 B2- | BB B2 G2 _A2 B2 E4 E2 | %72
w: re in Do- mi-|no,||con- fir- ma- tum est|* cor e-|ius: non com- mo- ve\-|* bi- tur do- nec de- spi- ci-|
 B8 B8 | G4 B8 c4 | (d8 e8 | d16) | G16 || z24 | z18 |[M:4/2][K:treble-8] G8 c8 | d6 e2 f8 | %81
w: at i-|ni- mi- cos|su\- *||os.|||Pec- ca-|tor vi- de-|
 f4 z2 e2 e2 d2 c4 | B4 c2 d2 =e2 (f4 _e2) | f8 B8 | B4 A4 c8 | G8 e8- | e8 d8 | c2 B2 A4 (G8 | %88
w: bit, et i- ra- sce-|tur, et i- ra- sce\- *|tur, den-|ti- bus su-|is fre\-|* met|et ta- be- scet,|
 d8) G8- | G8 F8 | A8 B8 | F8 B8 | d16 | e8 f6 f2 | f8 z8 | z16 | z16 | f12 g4 | f6 f2 f4 e2 d2 | %99
w: * fre\-|* met|et ta-|be- scet:|de-|si- de- ri-|um,|||de- si-|de- ri- um pec- ca-|
 e8 d8- | d8 c8 | d8 d8 | z16 || z24 |[M:4/2][K:treble-8] z2 (GA Bcde f2) d2 g4- | g4 ^f4 (g6 =fe | %106
w: to- rum|* per-|i- bit.|||Si\- * * * * * * cut e\-|* rat in * *|
 d4) B4 c4 d4 | G8 z8 | z4 z2 F2 B2 B2 B4 | B4 z2 B2 e2 e2 (edcB) | c2 F2 z2 F2 B2 B2 (BAGF | %111
w: * prin- ci- pi-|o,|et nunc, et sem-|per, et nunc, et sem\- * * *|* per, et nunc, et sem\- * * *|
 G8) F8 | z16 | z2 f4 =e2 f3 _e d4 | G8 F4 B4- | B4 c4 d8 | c4 z4 B4 c4 | d3 c B4 e8 | d4 e8 c4 | %119
w: * per,||et in sae- cu- la|sae- cu- lo\-|* rum, A-|men, et in|sae- cu- la sae-|cu- lo- rum,|
 d8 G16 |] %120
w: A- men.|

